images/Luna.svg

<svg height="250" viewBox="0 0 250 250" width="250" xmlns="http://www.w3.org/2000/svg"><path d="m250 125c0 69.035156-55.964844 125-125 125s-125-55.964844-125-125 55.964844-125 125-125 125 55.964844 125 125zm0 0" fill="#fff"/><path d="m135.371094 153.828125c-50.976563-22.773437-82.773438-69.003906-84.628906-115.527344-.078126-1.953125-2.421876-2.929687-3.886719-1.640625-24.648438 21.660156-40.097657 53.476563-39.804688 88.90625.527344 63.085938 51.757813 114.863282 114.882813 116.054688 50.976562.957031 94.6875-30.605469 111.777344-75.3125.683593-1.757813-.898438-3.59375-2.734376-3.125-29.6875 7.460937-63.59375 4.960937-95.605468-9.355469zm0 0" fill="#f9d85e"/><path d="m239.277344 103.4375c-.039063-.234375-.078125-.46875-.136719-.703125-.644531-3.378906-1.425781-6.699219-2.34375-9.960937-.039063-.15625-.078125-.292969-.117187-.449219-.449219-1.5625-.9375-3.125-1.445313-4.667969-.039063-.117188-.078125-.234375-.117187-.351562-1.074219-3.222657-2.285157-6.367188-3.632813-9.453126-.039063-.058593-.058594-.136718-.097656-.214843-.644531-1.484375-1.328125-2.96875-2.050781-4.414063-.019532-.039062-.039063-.078125-.058594-.117187-.742188-1.503907-1.503906-2.988281-2.304688-4.453125-.019531-.039063-.039062-.078125-.058594-.117188-.820312-1.503906-1.679687-2.96875-2.558593-4.433594-.019531-.039062-.039063-.078124-.078125-.117187-.820313-1.347656-1.660156-2.65625-2.519532-3.964844-.097656-.15625-.195312-.292969-.292968-.449219-1.816406-2.734374-3.769532-5.371093-5.800782-7.929687-.117187-.15625-.253906-.3125-.371093-.46875-1.074219-1.347656-2.1875-2.65625-3.339844-3.945313 0 0 0 0 0-.019531-1.09375-1.25-2.226563-2.460937-3.359375-3.652343-.039062-.039063-.097656-.097657-.136719-.136719-1.035156-1.074219-2.089843-2.148438-3.183593-3.183594-.15625-.15625-.3125-.292969-.46875-.449219-1.113282-1.054687-2.226563-2.089844-3.378907-3.105468-.136719-.117188-.273437-.234376-.410156-.351563-1.171875-1.015625-2.363281-2.011719-3.554687-2.988281-.117188-.097656-.214844-.175782-.332032-.273438-1.269531-1.015625-2.578125-2.011718-3.90625-2.988281-.019531-.019531-.058594-.039063-.078125-.058594-1.328125-.976562-2.695312-1.933593-4.0625-2.851562-.019531-.019531-.039062-.019531-.058593-.039063-2.753907-1.835937-5.605469-3.574218-8.535157-5.175781-.117187-.058594-.214843-.117187-.332031-.175781-1.386719-.761719-2.8125-1.484375-4.238281-2.207032-.195313-.097656-.371094-.195312-.566407-.273437-2.96875-1.445313-6.015624-2.773437-9.121093-3.984375-.175781-.078125-.351563-.136719-.527344-.214844-1.601563-.605468-3.242187-1.191406-4.882813-1.738281-.039062-.019531-.058593-.019531-.097656-.039063-1.523437-.507812-3.066406-.976562-4.628906-1.425781-.136719-.039062-.273438-.078125-.429688-.117187-1.660156-.46875-3.339843-.898438-5.019531-1.289063-.039062 0-.058593-.019531-.097656-.019531-1.601563-.371094-3.222656-.703125-4.84375-1.015625-.097656-.019531-.214844-.039063-.3125-.058594-1.699219-.3125-3.417969-.585937-5.136719-.839843-.019531 0-.019531 0-.039062 0-2.675782-.371094-5.371094-.644532-8.105469-.839844.449219.097656.898437.136718 1.347656.195312 1.074219.097656 2.109375.195313 3.125.3125h.019531c1.015626.117188 1.992188.234375 2.949219.371094h.039063c.9375.136719 1.855468.273438 2.753906.429688.019531 0 .058594 0 .078125.019531.878906.15625 1.738281.3125 2.578125.488281.039062 0 .078125.019531.117188.019531.820312.175781 1.621093.351563 2.402343.546875.058594.019532.097657.019532.15625.039063.761719.195312 1.503907.390625 2.207031.605469.058594.019531.136719.039062.195313.058593.703125.214844 1.386719.429688 2.050781.664063.078125.019531.15625.058594.234375.078125.644531.234375 1.269531.46875 1.875.703125.097657.039062.195313.078125.292969.117187.585938.234375 1.152344.488281 1.71875.761719.117188.058594.214844.117188.332031.175781.527344.253907 1.054688.507813 1.542969.78125.136719.078125.253906.15625.390625.214844.46875.273437.9375.527344 1.386719.820313.15625.097656.292968.195312.449218.292968.410157.273438.839844.546875 1.230469.839844.175781.136719.351563.273438.527344.410156.351563.273438.722656.527344 1.054687.820313.214844.175781.410157.371093.625.546875l.878907.761718c.273437.253907.527343.527344.800781.78125.214844.214844.429688.410157.625.625.46875.488282.917969.996094 1.347656 1.523438.644532.78125 3.984375 5.019531 5.78125 12.460938 2.167969 8.964843 1.796875 18.300781 3.847656 27.285156.351563 1.503906.722657 2.988281 1.09375 4.433594.097657.390624.214844.761718.3125 1.152343.3125 1.113281.625 2.226563.9375 3.300781.097657.332032.195313.664063.292969.996094 10.546875 33.984375 31.660157 50.136719 59.980469 71.757813.976562-6.054688 1.464844-12.265625 1.464844-18.59375.019531-7.148438-.625-14.21875-1.875-21.074219zm0 0" fill="#ef7730"/><path d="m240.058594 108.359375c-4.140625-9.570313-4.140625-9.570313-115.195313-49.6875-55.878906-20.195313-66.25-39.6875-25.800781-48.515625 1.972656-.429688 3.964844-.800781 5.957031-1.132812 6.191407-1.015626 12.539063-1.523438 19.003907-1.523438 59.199218 0 108.144531 43.886719 116.035156 100.859375" fill="#f9d85e"/></svg>

<!-- Generator: Adobe Illustrator 23.0.3, SVG Export Plug-In . SVG Version: 6.00 Build 0)  -->
<svg xmlns="http://www.w3.org/2000/svg" xmlns:xlink="http://www.w3.org/1999/xlink" width="250px" height="250px" viewBox="0 0 250 250" version="1.1">
<g id="surface1">
<path style=" stroke:none;fill-rule:nonzero;fill:rgb(100%,100%,100%);fill-opacity:1;" d="M 250 125 C 250 194.035156 194.035156 250 125 250 C 55.964844 250 0 194.035156 0 125 C 0 55.964844 55.964844 0 125 0 C 194.035156 0 250 55.964844 250 125 Z M 250 125 "/>
<path style=" stroke:none;fill-rule:nonzero;fill:rgb(97.647059%,84.705883%,36.862746%);fill-opacity:1;" d="M 135.371094 153.828125 C 84.394531 131.054688 52.597656 84.824219 50.742188 38.300781 C 50.664062 36.347656 48.320312 35.371094 46.855469 36.660156 C 22.207031 58.320312 6.757812 90.136719 7.050781 125.566406 C 7.578125 188.652344 58.808594 240.429688 121.933594 241.621094 C 172.910156 242.578125 216.621094 211.015625 233.710938 166.308594 C 234.394531 164.550781 232.8125 162.714844 230.976562 163.183594 C 201.289062 170.644531 167.382812 168.144531 135.371094 153.828125 Z M 135.371094 153.828125 "/>
<path style=" stroke:none;fill-rule:nonzero;fill:rgb(93.725491%,46.666667%,18.82353%);fill-opacity:1;" d="M 239.277344 103.4375 C 239.238281 103.203125 239.199219 102.96875 239.140625 102.734375 C 238.496094 99.355469 237.714844 96.035156 236.796875 92.773438 C 236.757812 92.617188 236.71875 92.480469 236.679688 92.324219 C 236.230469 90.761719 235.742188 89.199219 235.234375 87.65625 C 235.195312 87.539062 235.15625 87.421875 235.117188 87.304688 C 234.042969 84.082031 232.832031 80.9375 231.484375 77.851562 C 231.445312 77.792969 231.425781 77.714844 231.386719 77.636719 C 230.742188 76.152344 230.058594 74.667969 229.335938 73.222656 C 229.316406 73.183594 229.296875 73.144531 229.277344 73.105469 C 228.535156 71.601562 227.773438 70.117188 226.972656 68.652344 C 226.953125 68.613281 226.933594 68.574219 226.914062 68.535156 C 226.09375 67.03125 225.234375 65.566406 224.355469 64.101562 C 224.335938 64.0625 224.316406 64.023438 224.277344 63.984375 C 223.457031 62.636719 222.617188 61.328125 221.757812 60.019531 C 221.660156 59.863281 221.5625 59.726562 221.464844 59.570312 C 219.648438 56.835938 217.695312 54.199219 215.664062 51.640625 C 215.546875 51.484375 215.410156 51.328125 215.292969 51.171875 C 214.21875 49.824219 213.105469 48.515625 211.953125 47.226562 C 211.953125 47.226562 211.953125 47.226562 211.953125 47.207031 C 210.859375 45.957031 209.726562 44.746094 208.59375 43.554688 C 208.554688 43.515625 208.496094 43.457031 208.457031 43.417969 C 207.421875 42.34375 206.367188 41.269531 205.273438 40.234375 C 205.117188 40.078125 204.960938 39.941406 204.804688 39.785156 C 203.691406 38.730469 202.578125 37.695312 201.425781 36.679688 C 201.289062 36.5625 201.152344 36.445312 201.015625 36.328125 C 199.84375 35.3125 198.652344 34.316406 197.460938 33.339844 C 197.34375 33.242188 197.246094 33.164062 197.128906 33.066406 C 195.859375 32.050781 194.550781 31.054688 193.222656 30.078125 C 193.203125 30.058594 193.164062 30.039062 193.144531 30.019531 C 191.816406 29.042969 190.449219 28.085938 189.082031 27.167969 C 189.0625 27.148438 189.042969 27.148438 189.023438 27.128906 C 186.269531 25.292969 183.417969 23.554688 180.488281 21.953125 C 180.371094 21.894531 180.273438 21.835938 180.15625 21.777344 C 178.769531 21.015625 177.34375 20.292969 175.917969 19.570312 C 175.722656 19.472656 175.546875 19.375 175.351562 19.296875 C 172.382812 17.851562 169.335938 16.523438 166.230469 15.3125 C 166.054688 15.234375 165.878906 15.175781 165.703125 15.097656 C 164.101562 14.492188 162.460938 13.90625 160.820312 13.359375 C 160.78125 13.339844 160.761719 13.339844 160.722656 13.320312 C 159.199219 12.8125 157.65625 12.34375 156.09375 11.894531 C 155.957031 11.855469 155.820312 11.816406 155.664062 11.777344 C 154.003906 11.308594 152.324219 10.878906 150.644531 10.488281 C 150.605469 10.488281 150.585938 10.46875 150.546875 10.46875 C 148.945312 10.097656 147.324219 9.765625 145.703125 9.453125 C 145.605469 9.433594 145.488281 9.414062 145.390625 9.394531 C 143.691406 9.082031 141.972656 8.808594 140.253906 8.554688 C 140.234375 8.554688 140.234375 8.554688 140.214844 8.554688 C 137.539062 8.183594 134.84375 7.910156 132.109375 7.714844 C 132.558594 7.8125 133.007812 7.851562 133.457031 7.910156 C 134.53125 8.007812 135.566406 8.105469 136.582031 8.222656 C 136.582031 8.222656 136.582031 8.222656 136.601562 8.222656 C 137.617188 8.339844 138.59375 8.457031 139.550781 8.59375 C 139.570312 8.59375 139.589844 8.59375 139.589844 8.59375 C 140.527344 8.730469 141.445312 8.867188 142.34375 9.023438 C 142.363281 9.023438 142.402344 9.023438 142.421875 9.042969 C 143.300781 9.199219 144.160156 9.355469 145 9.53125 C 145.039062 9.53125 145.078125 9.550781 145.117188 9.550781 C 145.9375 9.726562 146.738281 9.902344 147.519531 10.097656 C 147.578125 10.117188 147.617188 10.117188 147.675781 10.136719 C 148.4375 10.332031 149.179688 10.527344 149.882812 10.742188 C 149.941406 10.761719 150.019531 10.78125 150.078125 10.800781 C 150.78125 11.015625 151.464844 11.230469 152.128906 11.464844 C 152.207031 11.484375 152.285156 11.523438 152.363281 11.542969 C 153.007812 11.777344 153.632812 12.011719 154.238281 12.246094 C 154.335938 12.285156 154.433594 12.324219 154.53125 12.363281 C 155.117188 12.597656 155.683594 12.851562 156.25 13.125 C 156.367188 13.183594 156.464844 13.242188 156.582031 13.300781 C 157.109375 13.554688 157.636719 13.808594 158.125 14.082031 C 158.261719 14.160156 158.378906 14.238281 158.515625 14.296875 C 158.984375 14.570312 159.453125 14.824219 159.902344 15.117188 C 160.058594 15.214844 160.195312 15.3125 160.351562 15.410156 C 160.761719 15.683594 161.191406 15.957031 161.582031 16.25 C 161.757812 16.386719 161.933594 16.523438 162.109375 16.660156 C 162.460938 16.933594 162.832031 17.1875 163.164062 17.480469 C 163.378906 17.65625 163.574219 17.851562 163.789062 18.027344 C 164.082031 18.28125 164.375 18.535156 164.667969 18.789062 C 164.941406 19.042969 165.195312 19.316406 165.46875 19.570312 C 165.683594 19.785156 165.898438 19.980469 166.09375 20.195312 C 166.5625 20.683594 167.011719 21.191406 167.441406 21.71875 C 168.085938 22.5 171.425781 26.738281 173.222656 34.179688 C 175.390625 43.144531 175.019531 52.480469 177.070312 61.464844 C 177.421875 62.96875 177.792969 64.453125 178.164062 65.898438 C 178.261719 66.289062 178.378906 66.660156 178.476562 67.050781 C 178.789062 68.164062 179.101562 69.277344 179.414062 70.351562 C 179.511719 70.683594 179.609375 71.015625 179.707031 71.347656 C 190.253906 105.332031 211.367188 121.484375 239.6875 143.105469 C 240.664062 137.050781 241.152344 130.839844 241.152344 124.511719 C 241.171875 117.363281 240.527344 110.292969 239.277344 103.4375 Z M 239.277344 103.4375 "/>
<path style=" stroke:none;fill-rule:nonzero;fill:rgb(97.647059%,84.705883%,36.862746%);fill-opacity:1;" d="M 240.058594 108.359375 C 235.917969 98.789062 235.917969 98.789062 124.863281 58.671875 C 68.984375 38.476562 58.613281 18.984375 99.0625 10.15625 C 101.035156 9.726562 103.027344 9.355469 105.019531 9.023438 C 111.210938 8.007812 117.558594 7.5 124.023438 7.5 C 183.222656 7.5 232.167969 51.386719 240.058594 108.359375 "/>
</g>
</svg>
